source/manual/virtual-wan_COLOR.svg

<?xml version="1.0" encoding="UTF-8" standalone="no"?>
<svg
   xmlns:dc="http://purl.org/dc/elements/1.1/"
   xmlns:cc="http://creativecommons.org/ns#"
   xmlns:rdf="http://www.w3.org/1999/02/22-rdf-syntax-ns#"
   xmlns:svg="http://www.w3.org/2000/svg"
   xmlns="http://www.w3.org/2000/svg"
   id="svg42"
   version="1.1"
   viewBox="0 0 47.799999 47.799999"
   height="47.799999mm"
   width="47.799999mm">
  <defs
     id="defs36" />
  <metadata
     id="metadata39">
    <rdf:RDF>
      <cc:Work
         rdf:about="">
        <dc:format>image/svg+xml</dc:format>
        <dc:type
           rdf:resource="http://purl.org/dc/dcmitype/StillImage" />
        <dc:title></dc:title>
      </cc:Work>
    </rdf:RDF>
  </metadata>
  <g
     transform="translate(-1.1,-1.1)"
     id="layer1">
    <svg
       height="100%"
       width="100%"
       version="1.1"
       id="svg-virtual-wan">
      <path
         style="fill:#59b4d9"
         id="path2"
         d="m 39.606,12.8 c -0.011,0 -0.022,0.002 -0.033,0.002 C 39.226,6.284 33.735,1.1 26.992,1.1 22.064,1.1 17.807,3.873 15.732,7.906 14.868,7.712 13.973,7.6 13.05,7.6 6.45,7.6 1.1,12.838 1.1,19.3 1.1,25.762 6.45,31 13.05,31 h 26.556 c 5.133,0 9.294,-4.074 9.294,-9.1 0,-5.026 -4.161,-9.1 -9.294,-9.1 z" />
      <path
         style="opacity:0.2;fill:#ffffff"
         id="path4"
         d="m 39.606,12.8 c -0.011,0 -0.022,0.002 -0.033,0.002 C 39.226,6.284 33.735,1.1 26.992,1.1 22.064,1.1 17.807,3.873 15.732,7.906 14.868,7.712 13.973,7.6 13.05,7.6 6.45,7.6 1.1,12.838 1.1,19.3 1.1,25.762 6.45,31 13.05,31 h 26.556 c 5.133,0 9.294,-4.074 9.294,-9.1 0,-5.026 -4.161,-9.1 -9.294,-9.1 z" />
      <path
         style="fill:#ffffff"
         id="path6"
         d="M 26,48.15 C 17.095,48.15 9.85,40.905 9.85,32 9.85,23.095 17.095,15.85 26,15.85 c 8.905,0 16.15,7.245 16.15,16.15 0,8.905 -7.245,16.15 -16.15,16.15 z" />
      <path
         style="fill:#804998"
         id="path8"
         d="m 26,16.6 c 8.492,0 15.4,6.908 15.4,15.4 0,8.492 -6.908,15.4 -15.4,15.4 -8.492,0 -15.4,-6.908 -15.4,-15.4 0,-8.492 6.908,-15.4 15.4,-15.4 m 0,-1.5 C 16.666,15.1 9.1,22.666 9.1,32 9.1,41.334 16.666,48.9 26,48.9 35.334,48.9 42.9,41.334 42.9,32 42.9,22.666 35.334,15.1 26,15.1 Z" />
      <circle
         style="fill:#804998"
         r="3.1819999"
         id="ellipse10"
         cy="23.916"
         cx="22.223"
         transform="rotate(-70.001229,22.222094,23.915651)" />
      <circle
         style="fill:#804998"
         r="3.1819999"
         id="ellipse12"
         cy="33.223"
         cx="35.389999"
         transform="rotate(-70.001229,35.389033,33.223139)" />
      <circle
         style="fill:#804998"
         r="3.1819999"
         id="ellipse14"
         cy="38.837002"
         cx="19.802"
         transform="rotate(-70.001229,19.801081,38.836662)" />
      <path
         style="fill:#804998"
         id="path16"
         d="m 18.787,22.171 c -2.607,0 -5.121,0.541 -7.509,1.621 -0.417,0.737 -0.781,1.507 -1.085,2.308 2.598,-1.55 5.562,-2.374 8.594,-2.374 9.28,0 16.83,7.55 16.83,16.83 0,2.025 -0.361,4.012 -1.072,5.905 l -0.032,0.085 c 0.713,-0.423 1.391,-0.897 2.031,-1.418 0.372,-1.468 0.628,-3.049 0.628,-4.572 0,-10.138 -8.247,-18.385 -18.385,-18.385 z" />
      <path
         style="fill:#804998"
         id="path18"
         d="m 33.273,16.925 c -0.784,-0.381 -1.602,-0.701 -2.447,-0.958 -7.55,2.497 -12.604,9.461 -12.604,17.447 0,6.288 3.161,12.061 8.457,15.467 0.889,-0.039 1.76,-0.145 2.608,-0.317 L 29.203,48.522 C 23.389,45.661 19.778,39.872 19.778,33.414 19.777,25.418 25.447,18.505 33.273,16.925 Z" />
      <path
         style="fill:#804998"
         id="path20"
         d="m 42.185,36.432 c 0.15,-0.559 0.272,-1.128 0.364,-1.708 -2.889,-1.736 -6.157,-2.663 -9.524,-2.663 -8.002,0 -15.175,5.07 -17.849,12.827 l -0.016,0.049 0.038,0.034 c 0.359,0.308 0.744,0.605 1.139,0.891 0.058,0.041 0.115,0.084 0.174,0.124 l 0.028,-0.09 c 2.331,-7.374 8.956,-12.187 16.486,-12.187 3.263,-0.001 6.407,0.948 9.16,2.723 z" />
    </svg>
  </g>
</svg>

<svg aria-hidden="true" role="presentation">
<svg id="svg-virtual-wan"> <path fill="#59B4D9" d="M39.606,12.8c-0.011,0-0.022,0.002-0.033,0.002C39.226,6.284,33.735,1.1,26.992,1.1 	c-4.928,0-9.185,2.773-11.26,6.806C14.868,7.712,13.973,7.6,13.05,7.6C6.45,7.6,1.1,12.838,1.1,19.3C1.1,25.762,6.45,31,13.05,31 	h26.556c5.133,0,9.294-4.074,9.294-9.1C48.9,16.874,44.739,12.8,39.606,12.8z"></path> <path opacity="0.2" fill="#FFFFFF" d="M39.606,12.8c-0.011,0-0.022,0.002-0.033,0.002C39.226,6.284,33.735,1.1,26.992,1.1 	c-4.928,0-9.185,2.773-11.26,6.806C14.868,7.712,13.973,7.6,13.05,7.6C6.45,7.6,1.1,12.838,1.1,19.3C1.1,25.762,6.45,31,13.05,31 	h26.556c5.133,0,9.294-4.074,9.294-9.1C48.9,16.874,44.739,12.8,39.606,12.8z"></path> <path fill="#FFFFFF" d="M26,48.15c-8.905,0-16.15-7.245-16.15-16.15S17.095,15.85,26,15.85S42.15,23.095,42.15,32 	S34.905,48.15,26,48.15z"></path> <path fill="#804998" d="M26,16.6c8.492,0,15.4,6.908,15.4,15.4S34.492,47.4,26,47.4S10.6,40.492,10.6,32S17.508,16.6,26,16.6 		M26,15.1c-9.334,0-16.9,7.566-16.9,16.9S16.666,48.9,26,48.9S42.9,41.334,42.9,32S35.334,15.1,26,15.1L26,15.1z"></path> <ellipse transform="matrix(0.342 -0.9397 0.9397 0.342 -7.8514 36.6186)" fill="#804998" cx="22.223" cy="23.916" rx="3.182" ry="3.182"></ellipse> <ellipse transform="matrix(0.342 -0.9397 0.9397 0.342 -7.9338 55.1159)" fill="#804998" cx="35.39" cy="33.223" rx="3.182" ry="3.182"></ellipse> <ellipse transform="matrix(0.342 -0.9397 0.9397 0.342 -23.4657 44.1616)" fill="#804998" cx="19.802" cy="38.837" rx="3.182" ry="3.182"></ellipse> <path fill="#804998" d="M18.787,22.171c-2.607,0-5.121,0.541-7.509,1.621c-0.417,0.737-0.781,1.507-1.085,2.308 	c2.598-1.55,5.562-2.374,8.594-2.374c9.28,0,16.83,7.55,16.83,16.83c0,2.025-0.361,4.012-1.072,5.905l-0.032,0.085 	c0.713-0.423,1.391-0.897,2.031-1.418c0.372-1.468,0.628-3.049,0.628-4.572C37.172,30.418,28.925,22.171,18.787,22.171z"></path> <path fill="#804998" d="M33.273,16.925c-0.784-0.381-1.602-0.701-2.447-0.958c-7.55,2.497-12.604,9.461-12.604,17.447 	c0,6.288,3.161,12.061,8.457,15.467c0.889-0.039,1.76-0.145,2.608-0.317l-0.084-0.042c-5.814-2.861-9.425-8.65-9.425-15.108 	C19.777,25.418,25.447,18.505,33.273,16.925z"></path> <path fill="#804998" d="M42.185,36.432c0.15-0.559,0.272-1.128,0.364-1.708c-2.889-1.736-6.157-2.663-9.524-2.663 	c-8.002,0-15.175,5.07-17.849,12.827l-0.016,0.049l0.038,0.034c0.359,0.308,0.744,0.605,1.139,0.891 	c0.058,0.041,0.115,0.084,0.174,0.124l0.028-0.09c2.331-7.374,8.956-12.187,16.486-12.187 	C36.288,33.708,39.432,34.657,42.185,36.432z"></path> </svg>
</svg>
